!!!COM: Music21
!!!OTL: barndance_Kinclaven-Brig
!!!OMV: barndance_Kinclaven-Brig
**kern
*clefG2
*k[f#]
*G:
*M4/4
=1
12dL
12e
12f#J
=
4g
4b
4d
4b
=
4g
4b
4.d
8g
=
4b
8bL
8aJ
8gL
8aJ
8bL
8ddJ
=
4cc
4e
4.e
8g
=
4f#
4a
4e
4a
=
4f#
4a
4.dd
8ee
!!linebreak:original
=
4ff#
4ee
8aL
8bJ
8ccL
8eeJ
=
4dd
4b
4b
4ryy
=||
*M4/4
12dL
12e
12f#J
=
4g
4b
4d
4b
=
4g
4b
4.d
8g
=
4b
8bL
8aJ
8gL
8aJ
8bL
8ddJ
=
4cc
4e
4.e
8g
!!linebreak:original
=
4f#
4a
4e
4a
=
4f#
4a
4.ff#
8ee
=
4dd
4cc
8eL
8f#J
8bL
8aJ
=
4g
4d
4g
4ryy
=||
8bL
8ccJ
2.ryy
=
4dd
4b
4gg
4b
=
8ggL
8ff#J
4ee
2dd
=
4dd
8ddL
8bJ
8gL
8bJ
8ddL
8ggJ
!!linebreak:original
=
12ff#L
12gg
12ff#J
4ee
4ee
8aL
8bJ
=
4cc
4a
4ff#
4a
=
4ee
4dd
4.f#
8ee
=
4ff#
8ff#L
8eeJ
8aL
8bJ
8ccL
8eeJ
=
4dd
4b
4b
8bL
8ccJ
=
4dd
4b
4gg
4b
=
8ggL
8ff#J
4ee
2dd
!!linebreak:original
=
8dL
8gJ
8bL
8ddJ
8ggL
8ff#J
8aaL
8ggJ
=
12ff#L
12gg
12ff#J
4ee
4.ee
8gg
=
8ff#L
8aaJ
8eeL
8ggJ
4ff#
4ff#
=
8ff#L
8eeJ
8ccL
8aJ
4e
4e
=
8f#L
8gJ
8aL
8bJ
8ccL
8ddJ
8eeL
8ff#J
=
4gg
4g
4g
4ryy
=||
*-
